assets/Tennis/Flat/tennis_flat.svg

<svg width="32" height="32" viewBox="0 0 32 32" fill="none" xmlns="http://www.w3.org/2000/svg">
<path d="M13.2773 24.9531L10.8438 23.5391L8.18001 28.1794C7.79001 28.8494 8.02001 29.7094 8.69001 30.0994C9.36001 30.4894 10.22 30.2594 10.61 29.5894L13.2773 24.9531Z" fill="#212121"/>
<path d="M18.0238 17.5847C18.5144 17.6996 19.0119 17.7533 19.506 17.7485L19.82 18.1594L16.76 20.4994C15.69 21.3194 14.79 22.3494 14.11 23.5194L13.26 24.9894L10.82 23.5794L11.67 22.1094C12.35 20.9394 12.78 19.6394 12.96 18.2994L13.46 14.4894L13.9933 14.5586C14.233 14.9837 14.5237 15.3835 14.8627 15.748L14.42 19.1594C14.39 19.3794 14.5 19.5994 14.69 19.7094C14.88 19.8194 15.12 19.7994 15.3 19.6694L18.0238 17.5847Z" fill="#CA0B4A"/>
<path d="M14.6412 5.76312C16.5878 2.40703 20.8749 1.25223 24.2347 3.1897C27.5958 5.12793 28.7343 9.41616 26.8112 12.7815L26.8096 12.7844L25.5396 14.9844L25.5388 14.9857C23.5923 18.3418 19.3051 19.4966 15.9453 17.5591L15.9437 17.5582C12.5876 15.6116 11.4328 11.3245 13.3703 7.96474L14.6405 5.76445L14.6412 5.76312ZM15.9388 6.5157C15.9387 6.5159 15.9389 6.5155 15.9388 6.5157L14.6697 8.71408C14.6697 8.71417 14.6698 8.71398 14.6697 8.71408C13.1476 11.3539 14.0523 14.7264 16.6954 16.2601C19.3352 17.7819 22.7072 16.877 24.2407 14.234C24.2409 14.2337 24.2411 14.2334 24.2412 14.2331L25.5088 12.0373C25.5091 12.0368 25.5094 12.0363 25.5096 12.0359C27.0254 9.38144 26.1238 6.01061 23.4853 4.48912C20.8453 2.96671 17.4724 3.87225 15.9388 6.5157Z" fill="#F8312F"/>
<path d="M22.4081 4.01177C22.1158 3.91807 21.8192 3.85004 21.5213 3.80688L22.29 5.24943L20.52 5.30943L19.7286 3.84239C19.497 3.88517 19.2683 3.94265 19.044 4.01443L19.75 5.33943L17.98 5.40943L17.6126 4.71237C17.4215 4.84258 17.2376 4.98542 17.0624 5.14051L17.22 5.42943L16.7432 5.44677C16.5339 5.66442 16.3401 5.90172 16.1646 6.1579L17.58 6.10943L18.41 7.66943L16.64 7.72943L15.969 6.46417C15.959 6.48108 15.949 6.49807 15.9391 6.51512L15.9388 6.51572L15.5619 7.16862L15.88 7.75943L15.205 7.78679L14.8008 8.48707L16.23 8.43943L17.06 10.0094L15.29 10.0694L14.6189 8.80402C14.4746 9.06526 14.3537 9.3333 14.2555 9.60571L14.52 10.0994L14.0989 10.117C14.0409 10.3457 13.9982 10.5763 13.9703 10.8076L14.88 10.7794L15.71 12.3394L14.0099 12.3974C14.0492 12.6273 14.1029 12.8545 14.1707 13.0776L16.07 13.0094L16.9 14.5794L14.9349 14.6475C15.1001 14.8832 15.2848 15.1074 15.4882 15.3175L17.26 15.2594L18.0942 16.8297C18.3782 16.9019 18.6652 16.9506 18.9526 16.9765L18.03 15.2294L19.8 15.1694L20.6925 16.8564C20.9212 16.8036 21.1466 16.7363 21.367 16.6549L20.57 15.1494L22.34 15.0894L22.7662 15.8945C22.9547 15.7535 23.1352 15.5996 23.3063 15.4333L23.11 15.0594L23.6718 15.0416C23.8577 14.822 24.0288 14.5851 24.1827 14.3317L22.76 14.3794L21.93 12.8194L23.7 12.7594L24.3688 14.0122L24.7785 13.3024L24.47 12.7294L25.1246 12.7029L25.5088 12.0373L25.5096 12.0359C25.5161 12.0247 25.5224 12.0134 25.5288 12.0021L24.11 12.0494L23.28 10.4794L25.05 10.4194L25.7093 11.6532C25.8413 11.3747 25.9482 11.0899 26.0309 10.8017L25.8 10.3894L26.1338 10.3809C26.1804 10.1519 26.2122 9.92154 26.2295 9.69123L25.44 9.71943L24.61 8.15943L26.1213 8.1113C26.0719 7.88086 26.0078 7.65377 25.9296 7.43151L24.25 7.48943L23.41 5.90943L25.0622 5.85179C24.8749 5.61379 24.6664 5.3896 24.4376 5.18223L23.05 5.22943L22.4081 4.01177ZM20.11 6.02943L20.94 7.58943L19.17 7.64943L18.34 6.08943L20.11 6.02943ZM21.3 8.26943L22.13 9.82943L20.36 9.88943L19.53 8.32943L21.3 8.26943ZM19.02 12.2194L18.19 10.6594L19.96 10.5994L20.79 12.1594L19.02 12.2194ZM18.76 8.35943L19.59 9.92943L17.82 9.98943L16.99 8.41943L18.76 8.35943ZM17.41 10.6894L18.24 12.2494L16.48 12.3094L15.64 10.7494L17.41 10.6894ZM16.84 12.9894L18.61 12.9294L19.44 14.4894L17.67 14.5594L16.84 12.9894ZM20.21 14.4694L19.38 12.9094L21.15 12.8494L21.98 14.4094L20.21 14.4694ZM21.55 12.1294L20.72 10.5594L22.49 10.4994L23.32 12.0694L21.55 12.1294ZM22.9 9.80943L22.07 8.24943L23.84 8.18943L24.67 9.73943L22.9 9.80943ZM21.71 7.55943L20.88 5.99943L22.65 5.93943L23.48 7.49943L21.71 7.55943Z" fill="#D3D3D3"/>
<path d="M11 16C11 17.6569 9.65685 19 8 19C6.34315 19 5 17.6569 5 16C5 14.3431 6.34315 13 8 13C9.65685 13 11 14.3431 11 16Z" fill="#C3EF3C"/>
<path d="M10.9898 15.7504C10.4291 15.7704 9.87519 15.6216 9.4 15.323C9.05569 15.0872 8.77973 14.7646 8.6 14.388C8.45137 14.0848 8.34826 13.7613 8.294 13.428C8.272 13.296 8.262 13.187 8.256 13.111V13.025V13.0108C8.17161 13.0036 8.08623 13 8 13C7.91785 13 7.83648 13.0033 7.756 13.0098V13.04V13.145C7.763 13.233 7.775 13.358 7.8 13.508C7.863 13.8898 7.98124 14.2603 8.151 14.608C8.37209 15.0626 8.70864 15.4512 9.127 15.735C9.68245 16.0892 10.3313 16.2687 10.9897 16.2503C10.9965 16.1678 11 16.0843 11 16C11 15.9159 10.9965 15.8327 10.9898 15.7504ZM8.244 18.9902V18.96L8.249 18.958V18.958C8.249 18.933 8.249 18.898 8.244 18.858C8.237 18.77 8.225 18.645 8.2 18.495C8.13699 18.1132 8.01875 17.7427 7.849 17.395C7.62791 16.9404 7.29136 16.5518 6.873 16.268C6.31788 15.9127 5.66899 15.7322 5.01029 15.7497C5.00348 15.8322 5 15.9157 5 16C5 16.0841 5.00346 16.1673 5.01024 16.2496C5.57093 16.2296 6.12481 16.3784 6.6 16.677C6.9443 16.9128 7.22027 17.2353 7.4 17.612C7.54863 17.9152 7.65174 18.2387 7.706 18.572C7.728 18.704 7.738 18.813 7.744 18.889V18.975V18.9892C7.82839 18.9964 7.91377 19 8 19C8.08215 19 8.16352 18.9967 8.244 18.9902Z" fill="#D3D3D3"/>
</svg>

<svg xmlns="http://www.w3.org/2000/svg" width="32" height="32" fill="none"><path fill="#212121" d="m13.277 24.953-2.433-1.414-2.664 4.64a1.405 1.405 0 0 0 2.43 1.41l2.667-4.636Z"/><path fill="#CA0B4A" d="M18.024 17.585c.49.115.988.168 1.482.163l.314.411-3.06 2.34c-1.07.82-1.97 1.85-2.65 3.02l-.85 1.47-2.44-1.41.85-1.47c.68-1.17 1.11-2.47 1.29-3.81l.5-3.81.533.07c.24.425.53.825.87 1.189l-.443 3.411c-.03.22.08.44.27.55.19.11.43.09.61-.04l2.724-2.084Z"/><path fill="#F8312F" d="M14.641 5.763c1.947-3.356 6.234-4.51 9.594-2.573 3.36 1.938 4.5 6.226 2.576 9.591l-.001.003-1.27 2.2-.001.002c-1.947 3.356-6.234 4.51-9.594 2.573h-.001c-3.356-1.947-4.511-6.235-2.574-9.594l1.27-2.2.001-.002Zm1.298.753-1.27 2.198a5.53 5.53 0 0 0 2.026 7.546 5.53 5.53 0 0 0 7.546-2.027l1.268-2.196v-.001c1.516-2.655.615-6.025-2.024-7.547a5.53 5.53 0 0 0-7.546 2.027Z"/><path fill="#D3D3D3" d="M22.408 4.012a5.477 5.477 0 0 0-.887-.205l.769 1.442-1.77.06-.791-1.467c-.232.043-.46.1-.685.172l.706 1.325-1.77.07-.367-.697c-.191.13-.375.273-.55.429l.157.288-.477.018c-.21.217-.403.455-.578.71l1.415-.048.83 1.56-1.77.06-.671-1.265-.03.051-.377.654.318.59-.675.028-.404.7 1.429-.048.83 1.57-1.77.06-.671-1.265a5.55 5.55 0 0 0-.364.802l.265.493-.421.018c-.058.229-.1.46-.129.69l.91-.028.83 1.56-1.7.058c.04.23.093.457.16.68l1.9-.068.83 1.57-1.965.069c.165.235.35.46.553.67l1.772-.059.834 1.57c.284.073.571.122.859.148l-.923-1.748 1.77-.06.892 1.687c.23-.052.455-.12.675-.201l-.797-1.506 1.77-.06.426.806c.189-.141.37-.295.54-.462l-.196-.374.562-.017c.186-.22.357-.457.51-.71l-1.422.047-.83-1.56 1.77-.06.669 1.253.41-.71-.309-.573.655-.026.384-.666v-.001l.02-.034-1.419.047-.83-1.57 1.77-.06.66 1.234c.131-.278.238-.563.32-.851l-.23-.413.334-.008a5.54 5.54 0 0 0 .096-.69l-.79.028-.83-1.56 1.511-.048a5.56 5.56 0 0 0-.191-.68l-1.68.058-.84-1.58 1.652-.057a5.464 5.464 0 0 0-.624-.67l-1.388.047-.642-1.217ZM20.11 6.029l.83 1.56-1.77.06-.83-1.56 1.77-.06Zm1.19 2.24.83 1.56-1.77.06-.83-1.56 1.77-.06Zm-2.28 3.95-.83-1.56 1.77-.06.83 1.56-1.77.06Zm-.26-3.86.83 1.57-1.77.06-.83-1.57 1.77-.06Zm-1.35 2.33.83 1.56-1.76.06-.84-1.56 1.77-.06Zm-.57 2.3 1.77-.06.83 1.56-1.77.07-.83-1.57Zm3.37 1.48-.83-1.56 1.77-.06.83 1.56-1.77.06Zm1.34-2.34-.83-1.57 1.77-.06.83 1.57-1.77.06Zm1.35-2.32-.83-1.56 1.77-.06.83 1.55-1.77.07Zm-1.19-2.25L20.88 6l1.77-.06.83 1.56-1.77.06Z"/><path fill="#C3EF3C" d="M11 16a3 3 0 1 1-6 0 3 3 0 0 1 6 0Z"/><path fill="#D3D3D3" d="M10.99 15.75a2.8 2.8 0 0 1-1.59-.427 2.371 2.371 0 0 1-.8-.935 3.435 3.435 0 0 1-.344-1.277V13.011a3.011 3.011 0 0 0-.5-.001v.135a3.986 3.986 0 0 0 .395 1.463c.221.455.558.843.976 1.127a3.293 3.293 0 0 0 1.863.515 3.047 3.047 0 0 0 0-.5Zm-2.746 3.24v-.03l.005-.002c0-.025 0-.06-.005-.1a3.987 3.987 0 0 0-.395-1.463 2.888 2.888 0 0 0-.976-1.127 3.293 3.293 0 0 0-1.863-.518 3.043 3.043 0 0 0 0 .5 2.8 2.8 0 0 1 1.59.427c.344.236.62.558.8.935a3.435 3.435 0 0 1 .344 1.277V18.989a3.011 3.011 0 0 0 .5.001Z"/></svg>
